<?xml version="1.0" encoding="UTF-8"?>
<map version="1.10" tiledversion="1.12.1" orientation="orthogonal" renderorder="right-down" width="30" height="20" tilewidth="16" tileheight="16" infinite="0" nextlayerid="11" nextobjectid="7">
 <tileset firstgid="1" source="../../../../../../../Downloads/tilesFloor.tsx"/>
 <tileset firstgid="199" source="../../../../../../../Downloads/tilesWalls.tsx"/>
 <tileset firstgid="391" source="../../../../../../../Downloads/tilesStuff.tsx"/>
 <tileset firstgid="983" source="../../../../../../../Downloads/spriteSheet_tiledLiquids_16x16.tsx"/>
 <tileset firstgid="1031" source="../../../../../../../Downloads/technoblade.tsx"/>
 <layer id="5" name="BottomShopRoom" width="30" height="20">
  <data encoding="csv">
234,234,234,234,234,234,234,234,234,234,234,234,234,234,987,0,987,234,234,234,234,234,234,234,234,234,234,234,234,234,
234,234,234,234,234,234,234,234,234,234,234,234,234,234,234,987,234,234,234,234,234,234,234,234,234,234,234,234,234,234,
234,234,234,234,234,234,234,234,234,234,234,234,234,234,987,0,987,234,234,234,234,234,234,234,234,234,234,234,234,234,
234,234,234,234,234,234,234,234,234,234,234,234,234,987,0,987,0,987,234,234,234,234,234,234,234,234,234,234,234,234,
234,234,234,234,234,234,234,234,234,234,234,234,987,0,987,0,987,0,987,234,234,234,234,234,234,234,234,234,234,234,
234,234,234,234,234,234,234,234,234,234,234,987,0,987,0,987,0,987,0,987,234,234,234,234,234,234,234,234,234,234,
234,234,234,234,234,234,234,234,234,234,987,0,987,0,987,0,987,0,987,0,987,234,234,234,234,234,234,234,234,234,
234,234,234,234,234,234,234,234,234,987,0,987,0,987,0,987,0,987,0,987,0,987,234,234,234,234,234,234,234,234,
234,234,234,234,234,234,234,234,987,0,987,0,987,0,987,0,987,0,987,0,987,0,987,234,234,234,234,234,234,234,
234,234,234,234,234,234,234,987,0,987,0,987,0,987,0,987,0,987,0,987,0,987,0,987,234,234,234,234,234,234,
234,234,234,234,234,234,234,234,987,0,987,0,987,0,987,0,987,0,987,0,987,0,987,234,234,234,234,234,234,234,
234,234,234,234,234,234,234,234,234,987,0,987,0,987,0,987,0,987,0,987,0,987,234,234,234,234,234,234,234,234,
234,234,234,234,234,234,234,234,234,234,987,0,987,0,987,0,987,0,987,0,987,234,234,234,234,234,234,234,234,234,
234,234,234,234,234,234,234,234,234,234,234,987,0,987,0,987,0,987,0,987,234,234,234,234,234,234,234,234,234,234,
234,234,234,234,234,234,234,234,234,234,234,234,987,0,987,0,987,0,987,234,234,234,234,234,234,234,234,234,234,234,
234,234,234,234,234,234,234,234,234,234,234,234,234,987,0,987,0,987,234,234,234,234,234,234,234,234,234,234,234,234,
234,234,234,234,234,234,234,234,234,234,234,234,234,234,987,0,987,234,234,234,234,234,234,234,234,234,234,234,234,234,
234,234,234,234,234,234,234,234,234,234,234,234,234,234,234,987,234,234,234,234,234,234,234,234,234,234,234,234,234,234,
234,234,234,234,234,234,234,234,234,234,234,234,234,234,234,234,234,234,234,234,234,234,234,234,234,234,234,234,234,234,
234,234,234,234,234,234,234,234,234,234,234,234,234,234,234,234,234,234,234,234,234,234,234,234,234,234,234,234,234,234
</data>
 </layer>
 <layer id="1" name="FloorShopRoom" width="30" height="20">
  <data encoding="csv">
0,0,0,0,0,0,0,0,0,0,0,0,0,0,186,194,186,0,0,0,0,0,0,0,0,0,0,0,0,0,
0,0,0,0,0,0,0,0,0,0,0,0,0,0,194,186,194,0,0,0,0,0,0,0,0,0,0,0,0,0,
0,0,0,0,0,0,0,0,0,0,0,0,0,0,186,194,186,0,0,0,0,0,0,0,0,0,0,0,0,0,
0,0,0,0,0,0,0,0,0,0,0,0,0,186,194,186,194,186,0,0,0,0,0,0,0,0,0,0,0,0,
0,0,0,0,0,0,0,0,0,0,0,0,186,194,186,194,186,194,186,0,0,0,0,0,0,0,0,0,0,0,
0,0,0,0,0,0,0,0,0,0,0,186,194,186,194,186,194,186,194,186,0,0,0,0,0,0,0,0,0,0,
0,0,0,0,0,0,0,0,0,0,186,194,186,194,186,194,186,194,186,194,186,0,0,0,0,0,0,0,0,0,
0,0,0,0,0,0,0,0,0,186,194,186,194,186,194,186,194,186,194,186,194,186,0,0,0,0,0,0,0,0,
0,0,0,0,0,0,0,0,186,194,186,194,186,194,186,194,186,194,186,194,186,194,186,0,0,0,0,0,0,0,
0,0,0,0,0,0,0,186,194,186,194,186,194,186,194,186,194,186,194,186,194,186,194,186,0,0,0,0,0,0,
0,0,0,0,0,0,0,0,186,194,186,194,186,194,186,194,186,194,186,194,186,194,186,0,0,0,0,0,0,0,
0,0,0,0,0,0,0,0,0,186,194,186,194,186,194,186,194,186,194,186,194,186,0,0,0,0,0,0,0,0,
0,0,0,0,0,0,0,0,0,0,186,194,186,194,186,194,186,194,186,194,186,0,0,0,0,0,0,0,0,0,
0,0,0,0,0,0,0,0,0,0,0,186,194,186,194,186,194,186,194,186,0,0,0,0,0,0,0,0,0,0,
0,0,0,0,0,0,0,0,0,0,0,0,186,194,186,194,186,194,186,0,0,0,0,0,0,0,0,0,0,0,
0,0,0,0,0,0,0,0,0,0,0,0,0,186,194,186,194,186,0,0,0,0,0,0,0,0,0,0,0,0,
0,0,0,0,0,0,0,0,0,0,0,0,0,0,186,194,186,0,0,0,0,0,0,0,0,0,0,0,0,0,
0,0,0,0,0,0,0,0,0,0,0,0,0,0,0,186,0,0,0,0,0,0,0,0,0,0,0,0,0,0,
0,0,0,0,0,0,0,0,0,0,0,0,0,0,0,0,0,0,0,0,0,0,0,0,0,0,0,0,0,0,
0,0,0,0,0,0,0,0,0,0,0,0,0,0,0,0,0,0,0,0,0,0,0,0,0,0,0,0,0,0
</data>
 </layer>
 <layer id="2" name="SidesCollisionShopRoom" width="30" height="20">
  <data encoding="csv">
0,0,0,0,0,0,0,0,0,0,0,0,0,209,0,0,0,209,0,0,0,0,0,0,0,0,0,0,0,0,
0,0,0,0,0,0,0,0,0,0,0,0,209,221,0,0,0,221,209,0,0,0,0,0,0,0,0,0,0,0,
0,0,0,0,0,0,0,0,0,0,0,209,221,233,0,0,0,233,221,209,0,0,0,0,0,0,0,0,0,0,
0,0,0,0,0,0,0,0,0,0,209,221,233,0,0,0,0,0,233,221,209,0,0,0,0,0,0,0,0,0,
0,0,0,0,0,0,0,0,0,209,221,233,0,0,0,0,0,0,0,233,221,209,0,0,0,0,0,0,0,0,
0,0,0,0,0,0,0,0,209,221,233,0,0,0,0,0,0,0,0,0,233,221,209,0,0,0,0,0,0,0,
0,0,0,0,0,0,0,209,221,233,0,0,0,0,0,0,0,0,0,0,0,233,221,209,0,0,0,0,0,0,
0,0,0,0,0,0,209,221,233,0,0,0,0,0,0,0,0,0,0,0,0,0,233,221,209,0,0,0,0,0,
0,0,0,0,0,0,209,233,0,0,0,0,0,0,0,0,0,0,0,0,0,0,0,233,209,0,0,0,0,0,
0,0,0,0,0,0,221,209,0,0,0,0,0,0,0,0,0,0,0,0,0,0,0,209,221,0,0,0,0,0,
0,0,0,0,0,0,233,221,209,0,0,0,0,0,0,0,0,0,0,0,0,0,209,221,233,0,0,0,0,0,
0,0,0,0,0,0,0,233,221,209,0,0,0,0,0,0,0,0,0,0,0,209,221,233,0,0,0,0,0,0,
0,0,0,0,0,0,0,0,233,221,209,0,0,0,0,0,0,0,0,0,209,221,233,0,0,0,0,0,0,0,
0,0,0,0,0,0,0,0,0,233,221,209,0,0,0,0,0,0,0,209,221,233,0,0,0,0,0,0,0,0,
0,0,0,0,0,0,0,0,0,0,233,221,209,0,0,0,0,0,209,221,233,0,0,0,0,0,0,0,0,0,
0,0,0,0,0,0,0,0,0,0,0,233,221,209,0,0,0,209,221,233,0,0,0,0,0,0,0,0,0,0,
0,0,0,0,0,0,0,0,0,0,0,0,233,221,209,0,209,221,233,0,0,0,0,0,0,0,0,0,0,0,
0,0,0,0,0,0,0,0,0,0,0,0,0,233,221,209,221,233,0,0,0,0,0,0,0,0,0,0,0,0,
0,0,0,0,0,0,0,0,0,0,0,0,0,0,233,221,233,0,0,0,0,0,0,0,0,0,0,0,0,0,
0,0,0,0,0,0,0,0,0,0,0,0,0,0,0,233,0,0,0,0,0,0,0,0,0,0,0,0,0,0
</data>
 </layer>
 <layer id="3" name="MerchandiseCollisionShopRoom" width="30" height="20">
  <data encoding="csv">
0,0,0,0,0,0,0,0,0,0,0,0,0,0,0,0,0,0,0,0,0,0,0,0,0,0,0,0,0,0,
0,0,0,0,0,0,0,0,0,0,0,0,0,0,0,0,0,0,0,0,0,0,0,0,0,0,0,0,0,0,
0,0,0,0,0,0,0,0,0,0,0,0,0,0,0,0,0,0,0,0,0,0,0,0,0,0,0,0,0,0,
0,0,0,0,0,0,0,0,0,0,0,0,0,0,0,0,0,0,0,0,0,0,0,0,0,0,0,0,0,0,
0,0,0,0,0,0,0,0,0,0,0,0,0,0,0,0,0,0,0,0,0,0,0,0,0,0,0,0,0,0,
0,0,0,0,0,0,0,0,0,0,0,0,0,0,0,0,0,0,0,0,0,0,0,0,0,0,0,0,0,0,
0,0,0,0,0,0,0,0,0,0,0,751,752,753,0,0,0,751,752,753,0,0,0,0,0,0,0,0,0,0,
0,0,0,0,0,0,0,0,0,0,0,788,789,790,0,0,0,788,789,790,0,0,0,0,0,0,0,0,0,0,
0,0,0,0,0,0,0,0,0,0,0,751,752,753,0,0,0,751,752,753,0,0,0,0,0,0,0,0,0,0,
0,0,0,0,0,0,0,0,0,0,0,788,789,790,0,0,0,788,789,790,0,0,0,0,0,0,0,0,0,0,
0,0,0,0,0,0,0,0,0,0,0,899,900,901,0,0,0,899,900,901,0,0,0,0,0,0,0,0,0,0,
0,0,0,0,0,0,0,0,0,0,0,936,937,938,0,0,0,936,937,938,0,0,0,0,0,0,0,0,0,0,
0,0,0,0,0,0,0,0,0,0,0,973,974,975,899,900,901,973,974,975,0,0,0,0,0,0,0,0,0,0,
0,0,0,0,0,0,0,0,0,0,0,0,0,0,936,937,938,0,0,0,0,0,0,0,0,0,0,0,0,0,
0,0,0,0,0,0,0,0,0,0,0,0,0,0,973,974,975,0,0,0,0,0,0,0,0,0,0,0,0,0,
0,0,0,0,0,0,0,0,0,0,0,0,0,0,0,0,0,0,0,0,0,0,0,0,0,0,0,0,0,0,
0,0,0,0,0,0,0,0,0,0,0,0,0,0,0,0,0,0,0,0,0,0,0,0,0,0,0,0,0,0,
0,0,0,0,0,0,0,0,0,0,0,0,0,0,0,0,0,0,0,0,0,0,0,0,0,0,0,0,0,0,
0,0,0,0,0,0,0,0,0,0,0,0,0,0,0,0,0,0,0,0,0,0,0,0,0,0,0,0,0,0,
0,0,0,0,0,0,0,0,0,0,0,0,0,0,0,0,0,0,0,0,0,0,0,0,0,0,0,0,0,0
</data>
 </layer>
 <layer id="4" name="Merchandise2CollisionShopRoom" width="30" height="20">
  <data encoding="csv">
0,0,0,0,0,0,0,0,0,0,0,0,0,0,0,0,0,0,0,0,0,0,0,0,0,0,0,0,0,0,
0,0,0,0,0,0,0,0,0,0,0,0,0,0,0,0,0,0,0,0,0,0,0,0,0,0,0,0,0,0,
0,0,0,0,0,0,0,0,0,0,0,0,0,0,0,0,0,0,0,0,0,0,0,0,0,0,0,0,0,0,
0,0,0,0,0,0,0,0,0,0,0,0,0,0,0,0,0,0,0,0,0,0,0,0,0,0,0,0,0,0,
0,0,0,0,0,0,0,0,0,0,0,0,0,0,0,0,0,0,0,0,0,0,0,0,0,0,0,0,0,0,
0,0,0,0,0,0,0,0,0,0,0,0,0,0,0,0,0,0,0,0,0,0,0,0,0,0,0,0,0,0,
0,0,0,0,0,0,0,0,0,0,0,460,420,460,0,0,0,458,457,458,0,0,0,0,0,0,0,0,0,0,
0,0,0,0,0,0,0,0,0,0,0,0,0,0,0,0,0,0,0,0,0,0,0,0,0,0,0,0,0,0,
0,0,0,0,0,0,0,0,0,0,0,458,457,458,0,0,0,460,457,460,0,0,0,0,0,0,0,0,0,0,
0,0,0,0,0,0,0,0,0,0,0,0,0,0,0,0,0,0,0,0,0,0,0,0,0,0,0,0,0,0,
0,0,0,0,0,0,0,0,0,0,0,495,496,497,0,0,0,495,496,497,0,0,0,0,0,0,0,0,0,0,
0,0,0,0,0,0,0,0,0,0,0,0,0,0,0,0,0,0,0,0,0,0,0,0,0,0,0,0,0,0,
0,0,0,0,0,0,0,0,0,0,0,0,0,0,495,496,497,0,0,0,0,0,0,0,0,0,0,0,0,0,
0,0,0,0,0,0,0,0,0,0,0,0,0,0,0,0,0,0,0,0,0,0,0,0,0,0,0,0,0,0,
0,0,0,0,0,0,0,0,0,0,0,0,0,0,0,0,0,0,0,0,0,0,0,0,0,0,0,0,0,0,
0,0,0,0,0,0,0,0,0,0,0,0,0,0,0,0,0,0,0,0,0,0,0,0,0,0,0,0,0,0,
0,0,0,0,0,0,0,0,0,0,0,0,0,0,0,0,0,0,0,0,0,0,0,0,0,0,0,0,0,0,
0,0,0,0,0,0,0,0,0,0,0,0,0,0,0,0,0,0,0,0,0,0,0,0,0,0,0,0,0,0,
0,0,0,0,0,0,0,0,0,0,0,0,0,0,0,0,0,0,0,0,0,0,0,0,0,0,0,0,0,0,
0,0,0,0,0,0,0,0,0,0,0,0,0,0,0,0,0,0,0,0,0,0,0,0,0,0,0,0,0,0
</data>
 </layer>
 <layer id="9" name="TransitionPlaceholder" width="30" height="20">
  <data encoding="csv">
0,0,0,0,0,0,0,0,0,0,0,0,0,0,0,0,0,0,0,0,0,0,0,0,0,0,0,0,0,0,
0,0,0,0,0,0,0,0,0,0,0,0,0,0,0,0,0,0,0,0,0,0,0,0,0,0,0,0,0,0,
0,0,0,0,0,0,0,0,0,0,0,0,0,0,460,460,460,0,0,0,0,0,0,0,0,0,0,0,0,0,
0,0,0,0,0,0,0,0,0,0,0,0,0,0,0,0,0,0,0,0,0,0,0,0,0,0,0,0,0,0,
0,0,0,0,0,0,0,0,0,0,0,0,0,0,0,0,0,0,0,0,0,0,0,0,0,0,0,0,0,0,
0,0,0,0,0,0,0,0,0,0,0,0,0,0,0,0,0,0,0,0,0,0,0,0,0,0,0,0,0,0,
0,0,0,0,0,0,0,0,0,0,0,0,0,0,0,0,0,0,0,0,0,0,0,0,0,0,0,0,0,0,
0,0,0,0,0,0,0,0,0,0,0,0,0,0,0,0,0,0,0,0,0,0,0,0,0,0,0,0,0,0,
0,0,0,0,0,0,0,0,0,0,0,0,0,0,0,0,0,0,0,0,0,0,0,0,0,0,0,0,0,0,
0,0,0,0,0,0,0,0,0,0,0,0,0,0,0,0,0,0,0,0,0,0,0,0,0,0,0,0,0,0,
0,0,0,0,0,0,0,0,0,0,0,0,0,0,0,0,0,0,0,0,0,0,0,0,0,0,0,0,0,0,
0,0,0,0,0,0,0,0,0,0,0,0,0,0,0,0,0,0,0,0,0,0,0,0,0,0,0,0,0,0,
0,0,0,0,0,0,0,0,0,0,0,0,0,0,0,0,0,0,0,0,0,0,0,0,0,0,0,0,0,0,
0,0,0,0,0,0,0,0,0,0,0,0,0,0,0,0,0,0,0,0,0,0,0,0,0,0,0,0,0,0,
0,0,0,0,0,0,0,0,0,0,0,0,0,0,0,0,0,0,0,0,0,0,0,0,0,0,0,0,0,0,
0,0,0,0,0,0,0,0,0,0,0,0,0,0,0,0,0,0,0,0,0,0,0,0,0,0,0,0,0,0,
0,0,0,0,0,0,0,0,0,0,0,0,0,0,0,0,0,0,0,0,0,0,0,0,0,0,0,0,0,0,
0,0,0,0,0,0,0,0,0,0,0,0,0,0,0,0,0,0,0,0,0,0,0,0,0,0,0,0,0,0,
0,0,0,0,0,0,0,0,0,0,0,0,0,0,0,0,0,0,0,0,0,0,0,0,0,0,0,0,0,0,
0,0,0,0,0,0,0,0,0,0,0,0,0,0,0,0,0,0,0,0,0,0,0,0,0,0,0,0,0,0
</data>
 </layer>
 <objectgroup id="8" name="Spawnpoint">
  <object id="4" x="240" y="64" width="16" height="16"/>
 </objectgroup>
 <objectgroup id="10" name="merchant_enter">
  <object id="6" x="176" y="80" width="144" height="16"/>
 </objectgroup>
 <objectgroup id="7" name="Shop">
  <object id="2" x="176" y="80" width="144" height="156.257"/>
 </objectgroup>
 <objectgroup id="10" name="merchant_enter">
  <object id="6" x="158.48" y="79.5322" width="176.608" height="156.725"/>
 </objectgroup>
 <objectgroup id="6" name="TransitionBackFromShop">
  <object id="1" x="224" y="32" width="48" height="16"/>
 </objectgroup>
</map>
